img/letter.svg

<svg width="100" height="100" viewBox="0 0 100 100" fill="none" xmlns="http://www.w3.org/2000/svg">
<g clip-path="url(#clip0)">
<path d="M49.4146 16.5395H69.7912C70.6004 16.5395 71.2561 15.8839 71.2561 15.0747C71.2561 14.2655 70.6004 13.6099 69.7912 13.6099H49.4146C48.6054 13.6099 47.9497 14.2655 47.9497 15.0747C47.9497 15.8839 48.6054 16.5395 49.4146 16.5395Z" fill="black"/>
<path d="M49.4146 23.6479H69.7912C70.6004 23.6479 71.2561 22.9923 71.2561 22.1831C71.2561 21.3739 70.6004 20.7183 69.7912 20.7183H49.4146C48.6054 20.7183 47.9497 21.3739 47.9497 22.1831C47.9497 22.9923 48.6054 23.6479 49.4146 23.6479Z" fill="black"/>
<path d="M49.4146 30.7558H69.7912C70.6004 30.7558 71.2561 30.1002 71.2561 29.291C71.2561 28.4818 70.6004 27.8262 69.7912 27.8262H49.4146C48.6054 27.8262 47.9497 28.4818 47.9497 29.291C47.9497 30.1002 48.6054 30.7558 49.4146 30.7558Z" fill="black"/>
<path d="M28.4187 43.5073C28.4187 44.3165 29.0744 44.9721 29.8836 44.9721H48.3071C49.1163 44.9721 49.772 44.3165 49.772 43.5073C49.772 42.6981 49.1163 42.0425 48.3071 42.0425H29.8836C29.0744 42.0425 28.4187 42.6983 28.4187 43.5073Z" fill="black"/>
<path d="M29.8836 49.1509C29.0744 49.1509 28.4187 49.8065 28.4187 50.6157C28.4187 51.4249 29.0744 52.0805 29.8836 52.0805H63.9319C64.7411 52.0805 65.3968 51.4249 65.3968 50.6157C65.3968 49.8065 64.7411 49.1509 63.9319 49.1509H29.8836Z" fill="black"/>
<path d="M29.8836 80.5136H69.7912C70.6004 80.5136 71.2561 79.858 71.2561 79.0488C71.2561 78.2396 70.6004 77.584 69.7912 77.584H29.8836C29.0744 77.584 28.4187 78.2396 28.4187 79.0488C28.4187 79.858 29.0744 80.5136 29.8836 80.5136Z" fill="black"/>
<path d="M29.8836 87.622H69.7912C70.6004 87.622 71.2561 86.9664 71.2561 86.1572C71.2561 85.348 70.6004 84.6924 69.7912 84.6924H29.8836C29.0744 84.6924 28.4187 85.348 28.4187 86.1572C28.4187 86.9664 29.0744 87.622 29.8836 87.622Z" fill="black"/>
<path d="M96.7393 15.4362C93.6251 13.6433 89.6529 14.7128 87.8601 17.8278L86.2719 20.5869L81.735 28.4687V10.5111C81.735 4.75746 77.0542 0.0766602 71.3006 0.0766602H10.4346C4.68099 0.0766602 0 4.75746 0 10.5111V15.4688C0 16.278 0.655655 16.9337 1.46482 16.9337C2.27399 16.9337 2.92965 16.278 2.92965 15.4688V10.5111C2.92965 6.37286 6.2962 3.00631 10.4346 3.00631C14.5728 3.00631 17.9394 6.37286 17.9394 10.5111V28.7267H4.37201C3.57671 28.7267 2.92965 28.0798 2.92965 27.2843V21.4455C2.92965 20.6363 2.27399 19.9807 1.46482 19.9807C0.655655 19.9807 0 20.6363 0 21.4455V27.2843C0 29.695 1.9613 31.6563 4.37201 31.6563H17.9394V97.0786C17.9394 98.647 19.2154 99.9229 20.7837 99.9229H35.7618C36.571 99.9229 37.2266 99.2673 37.2266 98.4581C37.2266 97.649 36.571 96.9933 35.7618 96.9933H20.8689V10.5111C20.8689 7.56679 19.6411 4.9053 17.673 3.00631H71.3008C75.439 3.00631 78.8056 6.37286 78.8056 10.5111V33.5582L65.7387 56.2591H29.8836C29.0744 56.2591 28.4187 56.9147 28.4187 57.7239C28.4187 58.5331 29.0744 59.1887 29.8836 59.1887H64.0524L61.6472 63.3674H29.8836C29.0744 63.3674 28.4187 64.023 28.4187 64.8322C28.4187 65.6414 29.0744 66.297 29.8836 66.297H60.3714L60.247 70.4759H29.8836C29.0744 70.4759 28.4187 71.1315 28.4187 71.9407C28.4187 72.7499 29.0744 73.4055 29.8836 73.4055H60.1603C60.133 74.5672 60.7394 75.6473 61.7474 76.2276C62.7607 76.8106 64.0073 76.7903 65.0013 76.1727L71.352 72.2266C71.3521 72.2266 71.3521 72.2264 71.3523 72.2262C71.5514 72.1022 71.7316 71.9159 71.8484 71.7132L78.8056 59.6266V96.9937H41.6186C40.8094 96.9937 40.1537 97.6493 40.1537 98.4585C40.1537 99.2677 40.8094 99.9233 41.6186 99.9233H78.8909C80.4592 99.9233 81.7352 98.6474 81.7352 97.079V54.7933C81.7352 54.7171 81.7276 54.6427 81.7165 54.5697L90.6421 39.0632C91.0456 38.3621 90.8044 37.4666 90.1033 37.0631C89.4023 36.6596 88.5066 36.9006 88.1031 37.6019L70.0402 68.9824C67.6786 67.623 66.1565 66.7468 63.8476 65.4176L88.0804 23.3179C88.53 23.5767 86.2189 22.2465 94.2731 26.8827L91.0247 32.526C90.6212 33.2272 90.8624 34.1227 91.5636 34.5262C92.2646 34.9295 93.1602 34.6887 93.5638 33.9873L97.5428 27.0745L99.1311 24.3152C100.923 21.2012 99.8545 17.2292 96.7393 15.4362ZM90.3993 19.2891C91.3845 17.5776 93.5663 16.9901 95.2778 17.975H95.278C96.9889 18.96 97.5774 21.1422 96.5922 22.8537L95.7346 24.3433L89.5419 20.7787L90.3993 19.2891ZM63.4554 73.6842C63.4253 73.7028 63.3333 73.7598 63.2089 73.6883C63.0843 73.6169 63.0876 73.5087 63.0888 73.4731L63.2384 68.4472L67.7264 71.0306L63.4554 73.6842Z" fill="black"/>
<path d="M35.8354 11.7149C34.8638 10.7437 33.2829 10.7433 32.3101 11.7149L27.4129 16.6121C26.6828 17.3424 26.4791 18.4648 26.9059 19.4053L31.8029 30.1922C32.2122 31.0944 33.082 31.6547 34.0724 31.6549H34.0728C35.0632 31.6549 35.9329 31.0945 36.3425 30.1926L41.2393 19.4058C41.6666 18.4654 41.4631 17.343 40.7324 16.6121L35.8354 11.7149ZM34.073 28.1051L29.6988 18.4697L34.073 14.0956L38.4471 18.4697L34.073 28.1051Z" fill="black"/>
</g>
<defs>
<clipPath id="clip0">
<rect width="100" height="100" fill="white"/>
</clipPath>
</defs>
</svg>

<svg width="100" height="100" fill="none" xmlns="http://www.w3.org/2000/svg"><g clip-path="url(#clip0)" fill="#000"><path d="M49.415 16.54H69.79a1.465 1.465 0 100-2.93H49.415a1.465 1.465 0 100 2.93zm0 7.108H69.79a1.465 1.465 0 100-2.93H49.415a1.465 1.465 0 100 2.93zm0 7.108H69.79a1.465 1.465 0 100-2.93H49.415a1.465 1.465 0 100 2.93zM28.419 43.507c0 .81.655 1.465 1.465 1.465h18.423a1.465 1.465 0 100-2.93H29.884c-.81 0-1.465.656-1.465 1.465zm1.465 5.643a1.465 1.465 0 100 2.93h34.048a1.465 1.465 0 100-2.93H29.884zm0 31.364H69.79a1.465 1.465 0 100-2.93H29.884a1.465 1.465 0 100 2.93zm0 7.108H69.79a1.465 1.465 0 100-2.93H29.884a1.465 1.465 0 100 2.93z"/><path d="M96.74 15.436a6.499 6.499 0 00-8.88 2.392l-1.588 2.759-4.537 7.882V10.51c0-5.754-4.68-10.434-10.434-10.434H10.435C4.68.077 0 4.757 0 10.51v4.958a1.465 1.465 0 102.93 0V10.51c0-4.138 3.366-7.505 7.505-7.505 4.138 0 7.504 3.367 7.504 7.505v18.216H4.372a1.444 1.444 0 01-1.442-1.443v-5.838a1.465 1.465 0 10-2.93 0v5.838a4.377 4.377 0 004.372 4.372h13.567V97.08a2.848 2.848 0 002.845 2.844h14.978a1.465 1.465 0 100-2.93H20.869V10.511c0-2.944-1.228-5.606-3.196-7.505h53.628c4.138 0 7.505 3.367 7.505 7.505v23.047L65.739 56.26H29.884a1.465 1.465 0 100 2.93h34.168l-2.405 4.178H29.884a1.465 1.465 0 100 2.93H60.37l-.124 4.179H29.884a1.465 1.465 0 100 2.93H60.16a3.166 3.166 0 001.587 2.822 3.165 3.165 0 003.254-.055l6.351-3.946c.2-.125.38-.311.496-.514l6.958-12.086v37.367H41.619a1.465 1.465 0 100 2.93H78.89a2.848 2.848 0 002.844-2.845V54.793c0-.076-.007-.15-.019-.223l8.926-15.507a1.465 1.465 0 10-2.539-1.461L70.04 68.982l-6.192-3.564 24.232-42.1 6.193 3.565-3.248 5.643a1.465 1.465 0 102.539 1.461l3.979-6.913 1.588-2.759a6.5 6.5 0 00-2.392-8.879zM90.4 19.29a3.57 3.57 0 014.878-1.314 3.571 3.571 0 011.314 4.879l-.857 1.49-6.193-3.565.857-1.49zM63.454 73.684a.22.22 0 01-.246.004.222.222 0 01-.12-.215l.15-5.026 4.487 2.584-4.27 2.653z"/><path d="M35.835 11.715a2.497 2.497 0 00-3.525 0l-4.897 4.897a2.505 2.505 0 00-.507 2.793l4.897 10.787a2.466 2.466 0 002.27 1.463c.99 0 1.86-.56 2.27-1.462l4.896-10.787a2.504 2.504 0 00-.507-2.794l-4.897-4.897zm-1.762 16.39l-4.374-9.635 4.374-4.374 4.374 4.374-4.374 9.635z"/></g><defs><clipPath id="clip0"><path fill="#fff" d="M0 0h100v100H0z"/></clipPath></defs></svg>
